layouts/icon-pack/weapon_lance.svg

<?xml version="1.0" encoding="UTF-8"?>
<svg width="1200pt" height="1200pt" version="1.1" viewBox="0 0 1200 1200" xmlns="http://www.w3.org/2000/svg">
 <g fill="#fff">
  <path d="m312.59 938.95c17.48-16.551 37.281-30.465 58.781-41.297l15.023-7.5234c3.5586-1.7891 6.0391-5.1797 6.6719-9.1094 0.62891-3.9336-0.66406-7.9297-3.4844-10.742l-59.906-59.906c-2.8164-2.8086-6.8086-4.0938-10.734-3.457s-7.3086 3.1172-9.0938 6.668l-7.5469 15c-10.801 21.5-24.684 41.312-41.203 58.805l-105.82 112.08c-10.113 10.719-24.484 16.355-39.188 15.375l-24.984-1.6641c-4.9219-0.375-9.8086 1.0469-13.758 4.0078-4.5312 3.4297-7.3555 8.6562-7.7461 14.324-0.39453 5.6719 1.6875 11.234 5.707 15.254l39.07 39.047 38.508 38.531c2.9766 3.0664 6.8438 5.1133 11.055 5.8516 4.207 0.73438 8.543 0.125 12.383-1.75 3.3906-1.7617 6.1992-4.4727 8.0742-7.8008 1.8789-3.332 2.7461-7.1367 2.4961-10.949l-1.7344-25.734c-0.96875-14.707 4.668-29.082 15.375-39.211z"/>
  <path d="m538.34 904.29 77.578-155.48c4.6875-9.4062 10.41-18.258 17.062-26.391l495.21-636.19c7.4062-9.5156-4.8516-21.797-14.367-14.391l-636.19 495.21c-8.1406 6.6523-16.988 12.383-26.391 17.086l-155.51 77.555c-7.5742 3.7891-12.863 10.984-14.219 19.344-1.3555 8.3555 1.3867 16.855 7.375 22.844l207.28 207.28c5.9844 5.9844 14.484 8.7266 22.84 7.3672 8.3555-1.3633 15.547-6.6602 19.324-14.234z"/>
 </g>
</svg>

<?xml version="1.0" encoding="UTF-8" standalone="no"?>
<!DOCTYPE svg PUBLIC "-//W3C//DTD SVG 1.1//EN" "http://www.w3.org/Graphics/SVG/1.1/DTD/svg11.dtd">
<svg width="100%" height="100%" viewBox="0 0 512 513" version="1.1" xmlns="http://www.w3.org/2000/svg" xmlns:xlink="http://www.w3.org/1999/xlink" xml:space="preserve" xmlns:serif="http://www.serif.com/" style="fill-rule:evenodd;clip-rule:evenodd;stroke-linejoin:round;stroke-miterlimit:2;">
    <g transform="matrix(1,0,0,1,-69.5543,-69.5681)">
        <g transform="matrix(0.482605,0,0,0.482605,35.987,35.9942)">
            <path d="M312.59,938.95C330.07,922.399 349.871,908.485 371.371,897.653L386.394,890.13C389.953,888.341 392.433,884.95 393.066,881.02C393.695,877.087 392.402,873.09 389.582,870.278L329.676,810.372C326.859,807.564 322.867,806.278 318.942,806.915C315.016,807.552 311.633,810.032 309.848,813.583L302.301,828.583C291.5,850.083 277.617,869.895 261.098,887.388L155.278,999.468C145.165,1010.19 130.794,1015.82 116.09,1014.84L91.106,1013.18C86.184,1012.8 81.297,1014.23 77.348,1017.19C72.817,1020.62 69.992,1025.84 69.602,1031.51C69.207,1037.18 71.289,1042.75 75.309,1046.77L114.379,1085.81L152.887,1124.34C155.863,1127.41 159.731,1129.46 163.942,1130.19C168.149,1130.93 172.485,1130.32 176.325,1128.44C179.715,1126.68 182.524,1123.97 184.399,1120.64C186.278,1117.31 187.145,1113.51 186.895,1109.69L185.161,1083.96C184.192,1069.25 189.829,1054.88 200.536,1044.75L312.59,938.95Z" style="fill:white;fill-rule:nonzero;"/>
            <path d="M538.34,904.29L615.918,748.81C620.606,739.404 626.328,730.552 632.98,722.419L1128.19,86.229C1135.6,76.713 1123.34,64.432 1113.82,71.838L477.633,567.048C469.492,573.7 460.645,579.431 451.242,584.134L295.732,661.689C288.158,665.478 282.869,672.673 281.513,681.033C280.158,689.388 282.9,697.888 288.888,703.877L496.168,911.157C502.152,917.141 510.652,919.884 519.008,918.524C527.364,917.161 534.555,911.864 538.332,904.29L538.34,904.29Z" style="fill:white;fill-rule:nonzero;"/>
        </g>
    </g>
</svg>
